img/icon-q_horror.svg

<svg width="30" height="30" viewBox="0 0 30 30" fill="none" xmlns="http://www.w3.org/2000/svg">
<path d="M29.1211 7.08984C28.6357 7.08984 28.2422 7.48336 28.2422 7.96875V8.84766H26.4258V4.39453C26.4258 1.97139 24.4544 0 22.0312 0H7.96875C5.54561 0 3.57422 1.97139 3.57422 4.39453V8.84766H1.75781V7.96875C1.75781 7.48336 1.3643 7.08984 0.878906 7.08984C0.393516 7.08984 0 7.48336 0 7.96875C0 8.27771 0 14.6916 0 15C0 15.4854 0.393516 15.8789 0.878906 15.8789C1.3643 15.8789 1.75781 15.4854 1.75781 15V14.1211H3.57422C3.57422 14.5291 3.57422 18.1166 3.57422 18.5156C3.57422 24.8481 8.69982 30 15 30C21.3002 30 26.4258 24.8481 26.4258 18.5156V14.1211H28.2422V15C28.2422 15.4854 28.6357 15.8789 29.1211 15.8789C29.6065 15.8789 30 15.4854 30 15C30 14.691 30 8.27713 30 7.96875C30 7.48336 29.6065 7.08984 29.1211 7.08984ZM3.57422 12.3633H1.75781C1.75781 11.7272 1.75781 11.2416 1.75781 10.6055H3.57422V12.3633ZM24.668 18.5156C24.668 23.8788 20.3309 28.2422 15 28.2422C9.66908 28.2422 5.33203 23.8789 5.33203 18.5156C5.33203 18.4384 5.33203 9.07582 5.33203 8.69643C5.60713 8.79398 5.90285 8.8476 6.21094 8.8476C6.88576 8.8476 7.50187 8.59248 7.96875 8.17406C8.43563 8.59254 9.05174 8.8476 9.72656 8.8476C10.4014 8.8476 11.0175 8.59248 11.4844 8.17406C11.9513 8.59254 12.5674 8.8476 13.2422 8.8476C13.917 8.8476 14.5331 8.59248 15 8.17406C15.4669 8.59254 16.083 8.8476 16.7578 8.8476C17.4326 8.8476 18.0487 8.59248 18.5156 8.17406C18.9825 8.59254 19.5986 8.8476 20.2734 8.8476C20.9483 8.8476 21.5644 8.59248 22.0312 8.17406C22.4981 8.59254 23.1142 8.8476 23.7891 8.8476C24.0971 8.8476 24.3929 8.79398 24.668 8.69643V18.5156ZM24.668 6.21094C24.668 6.69557 24.2737 7.08984 23.7891 7.08984C23.3044 7.08984 22.9102 6.69557 22.9102 6.21094C22.9102 5.72555 22.5166 5.33203 22.0312 5.33203C21.5459 5.33203 21.1523 5.72555 21.1523 6.21094C21.1523 6.69557 20.7581 7.08984 20.2734 7.08984C19.7888 7.08984 19.3945 6.69557 19.3945 6.21094C19.3945 5.72555 19.001 5.33203 18.5156 5.33203C18.0302 5.33203 17.6367 5.72555 17.6367 6.21094C17.6367 6.69557 17.2424 7.08984 16.7578 7.08984C16.2732 7.08984 15.8789 6.69557 15.8789 6.21094C15.8789 5.72555 15.4854 5.33203 15 5.33203C14.5146 5.33203 14.1211 5.72555 14.1211 6.21094C14.1211 6.69557 13.7268 7.08984 13.2422 7.08984C12.7576 7.08984 12.3633 6.69557 12.3633 6.21094C12.3633 5.72555 11.9698 5.33203 11.4844 5.33203C10.999 5.33203 10.6055 5.72555 10.6055 6.21094C10.6055 6.69557 10.2112 7.08984 9.72656 7.08984C9.24193 7.08984 8.84766 6.69557 8.84766 6.21094C8.84766 5.72555 8.45414 5.33203 7.96875 5.33203C7.48336 5.33203 7.08984 5.72555 7.08984 6.21094C7.08984 6.69557 6.69557 7.08984 6.21094 7.08984C5.72631 7.08984 5.33203 6.69557 5.33203 6.21094V4.39453C5.33203 2.94064 6.51486 1.75781 7.96875 1.75781H22.0312C23.4851 1.75781 24.668 2.94064 24.668 4.39453V6.21094ZM28.2422 12.3633H26.4258V10.6055H28.2422C28.2422 11.2416 28.2422 11.7272 28.2422 12.3633Z" fill="white"/>
<path d="M22.9102 11.4844C22.9102 10.999 22.5166 10.6055 22.0312 10.6055C21.5459 10.6055 21.1523 10.999 21.1523 11.4844C21.1523 11.9691 20.7581 12.3633 20.2734 12.3633H17.4859C17.2512 12.3633 17.0304 12.2719 16.8645 12.1059C15.8364 11.0779 14.1636 11.0779 13.1355 12.1059C12.9696 12.2719 12.7488 12.3633 12.5141 12.3633H9.72656C9.24193 12.3633 8.84766 11.969 8.84766 11.4844C8.84766 10.999 8.45414 10.6055 7.96875 10.6055C7.48336 10.6055 7.08984 10.999 7.08984 11.4844C7.08984 11.9233 7.19824 12.3372 7.38879 12.7016C7.19238 13.1461 7.08984 13.6276 7.08984 14.1212C7.08984 16.0597 8.66695 17.6368 10.6055 17.6368C12.544 17.6368 14.1211 16.0597 14.1211 14.1212C14.1211 13.9469 14.108 13.7745 14.0829 13.6042C14.1867 13.5271 14.2854 13.4419 14.3785 13.3489C14.7212 13.0062 15.2788 13.0062 15.6214 13.3489C15.7145 13.4419 15.8133 13.5272 15.9171 13.6043C15.892 13.7745 15.8789 13.9469 15.8789 14.1212C15.8789 16.0597 17.456 17.6368 19.3945 17.6368C21.333 17.6368 22.9102 16.0597 22.9102 14.1212C22.9102 13.6276 22.8076 13.1461 22.6112 12.7017C22.8018 12.3373 22.9102 11.9234 22.9102 11.4844ZM10.6055 15.879C9.63621 15.879 8.84766 15.0904 8.84766 14.1212C8.84766 14.0712 8.85029 14.0216 8.85445 13.9723C9.12762 14.0683 9.421 14.1153 9.72656 14.1153H12.3633C12.3633 15.0845 11.5747 15.879 10.6055 15.879ZM19.3945 15.879C18.4253 15.879 17.6367 15.0904 17.6367 14.1212H20.2734C20.579 14.1212 20.8724 14.0683 21.1455 13.9723C21.1497 14.0216 21.1523 14.0712 21.1523 14.1212C21.1523 15.0904 20.3638 15.879 19.3945 15.879Z" fill="white"/>
<path d="M16.7578 17.6367C16.2724 17.6367 15.8789 18.0302 15.8789 18.5156V19.3945H14.1211V18.5156C14.1211 18.0302 13.7276 17.6367 13.2422 17.6367C12.7568 17.6367 12.3633 18.0302 12.3633 18.5156V20.2734C12.3633 20.7588 12.7568 21.1523 13.2422 21.1523H16.7578C17.2432 21.1523 17.6367 20.7588 17.6367 20.2734V18.5156C17.6367 18.0302 17.2432 17.6367 16.7578 17.6367Z" fill="white"/>
<path d="M18.5156 22.9688H11.4844C10.999 22.9688 10.6055 23.3623 10.6055 23.8477C10.6055 24.333 10.999 24.7266 11.4844 24.7266H18.5156C19.001 24.7266 19.3945 24.333 19.3945 23.8477C19.3945 23.3623 19.001 22.9688 18.5156 22.9688Z" fill="white"/>
</svg>

<svg width="30" height="30" viewBox="0 0 30 30" fill="none" xmlns="http://www.w3.org/2000/svg"><path d="M29.121 7.09a.879.879 0 00-.879.879v.879h-1.816V4.395A4.4 4.4 0 0022.03 0H7.97a4.4 4.4 0 00-4.395 4.395v4.453H1.758v-.88a.879.879 0 00-1.758 0V15a.879.879 0 001.758 0v-.879h1.816v4.395C3.574 24.848 8.7 30 15 30s11.426-5.152 11.426-11.484V14.12h1.816V15A.879.879 0 0030 15V7.969a.879.879 0 00-.879-.88zM3.574 12.363H1.758v-1.758h1.816v1.758zm21.094 6.153c0 5.363-4.337 9.726-9.668 9.726-5.33 0-9.668-4.363-9.668-9.726v-9.82a2.625 2.625 0 002.637-.522 2.626 2.626 0 003.516 0 2.626 2.626 0 003.515 0 2.626 2.626 0 003.516 0 2.626 2.626 0 003.515 0 2.626 2.626 0 002.637.522v9.82zm0-12.305a.88.88 0 01-1.758 0 .879.879 0 00-1.758 0 .88.88 0 01-1.758 0 .879.879 0 00-1.757 0 .88.88 0 01-1.758 0 .879.879 0 00-1.758 0 .88.88 0 01-1.758 0 .879.879 0 00-1.758 0 .88.88 0 01-1.757 0 .879.879 0 00-1.758 0 .88.88 0 01-1.758 0V4.395a2.64 2.64 0 012.637-2.637H22.03a2.64 2.64 0 012.637 2.637V6.21zm3.574 6.152h-1.816v-1.758h1.816v1.758z" fill="#fff"/><path d="M22.91 11.484a.879.879 0 00-1.758 0 .88.88 0 01-.879.88h-2.787a.873.873 0 01-.622-.258 2.64 2.64 0 00-3.729 0 .873.873 0 01-.62.257H9.726a.88.88 0 01-.88-.879.879.879 0 00-1.757 0c0 .44.108.853.299 1.218a3.52 3.52 0 003.217 4.935 3.52 3.52 0 003.477-4.033c.104-.077.202-.162.296-.255a.88.88 0 011.242 0c.093.093.192.178.296.255a3.52 3.52 0 003.477 4.033 3.52 3.52 0 003.217-4.935c.19-.365.3-.779.3-1.218zM10.605 15.88a1.76 1.76 0 01-1.75-1.907c.273.096.566.143.872.143h2.636c0 .97-.788 1.764-1.758 1.764zm8.79 0a1.76 1.76 0 01-1.758-1.758h2.636c.306 0 .6-.053.872-.149a1.76 1.76 0 01-1.751 1.907z" fill="#fff"/><path d="M16.758 17.637a.879.879 0 00-.88.879v.879h-1.757v-.88a.879.879 0 00-1.758 0v1.758c0 .486.394.88.88.88h3.515a.879.879 0 00.879-.88v-1.757a.879.879 0 00-.88-.88zm1.758 5.332h-7.032a.879.879 0 000 1.758h7.032a.879.879 0 000-1.758z" fill="#fff"/></svg>
